src/components/icons/component.svg

<svg width="32" height="32" viewBox="0 0 32 32" fill="none" xmlns="http://www.w3.org/2000/svg">
<path fill-rule="evenodd" clip-rule="evenodd" d="M12.0625 10.9375L16 14.875L19.9375 10.9375L16 7L12.0625 10.9375ZM18.5233 10.9375L16 13.4608L13.4767 10.9375L16 8.41421L18.5233 10.9375ZM12.0625 21.0625L16 25L19.9375 21.0625L16 17.125L12.0625 21.0625ZM18.5233 21.0625L16 23.5858L13.4767 21.0625L16 18.5392L18.5233 21.0625ZM7 16L10.9375 12.0625L14.875 16L10.9375 19.9375L7 16ZM10.9375 18.5233L13.4608 16L10.9375 13.4767L8.41421 16L10.9375 18.5233ZM17.125 16L21.0625 19.9375L25 16L21.0625 12.0625L17.125 16ZM23.5858 16L21.0625 18.5233L18.5392 16L21.0625 13.4767L23.5858 16Z" fill="black"/>
</svg>

<svg xmlns="http://www.w3.org/2000/svg" fill="none" viewBox="0 0 32 32"><path fill="currentColor" fill-rule="evenodd" d="M12.063 10.938 16 14.874l3.938-3.938L16 7l-3.938 3.938Zm6.46 0L16 13.46l-2.523-2.524L16 8.415l2.523 2.524Zm-6.46 10.124L16 25l3.938-3.938L16 17.125l-3.938 3.938Zm6.46 0L16 23.587l-2.523-2.523L16 18.538l2.523 2.523ZM7 16l3.938-3.938L14.874 16l-3.938 3.938L7 16Zm3.938 2.523L13.46 16l-2.524-2.523L8.415 16l2.524 2.523ZM17.125 16l3.938 3.938L25 16l-3.938-3.938L17.125 16Zm6.46 0-2.523 2.523L18.54 16l2.523-2.523L23.587 16Z" clip-rule="evenodd"/></svg>
